collections/phosporicons/bold/faders.svg

<svg xmlns="http://www.w3.org/2000/svg" viewBox="0 0 256.001 256.001" width="20" height="20"><path fill="none" d="M0 0h256v256H0z"/><path fill="none" stroke="#000" stroke-linecap="round" stroke-linejoin="round" stroke-width="24" d="M128.001 124v92m0-176v44m72 120l.001 12m0-176l-.001 124m24 0h-48m-120 8L56 216m0-176l.001 92m-24 0h48m72-48h-48"/></svg>

<svg xmlns="http://www.w3.org/2000/svg" viewBox="0 0 256.001 256.001" width="20" height="20"><path fill="none" d="M0 0h256v256H0z"/><path fill="none" stroke="#000" stroke-linecap="round" stroke-linejoin="round" stroke-width="24" d="M128.001 124v92M128.001 40v44M200.001 204l.001 12M200.002 40l-.001 124M224.001 164h-48M56.001 172L56 216M56 40l.001 92M32.001 132h48M152.001 84h-48"/></svg>
